report_00007_2020-12-11T15:55:29.892Z/server-response-time/comparison/line/10_vs_11.svg

<svg width="640" height="500" xmlns="http://www.w3.org/2000/svg" xmlns:xlink="http://www.w3.org/1999/xlink"><path fill="#fff" d="M0 0h640v500H0z"/><defs><path id="d" stroke-width=".222" stroke="currentColor" d="M-1-1h2v2h-2z"/><path id="b" stroke-width=".222" stroke="currentColor" d="M0-1.33l-1.33 2h2.66z"/><path id="f" stroke-width=".222" stroke="currentColor" d="M0 1.33L1.265.411.782-1.067l-1.564-.009-.483 1.487z"/><use xlink:href="#b" id="c" stroke="currentColor" transform="rotate(180)"/><use xlink:href="#d" id="e" stroke="currentColor" transform="rotate(45)"/><circle id="a" stroke-width=".222" stroke="currentColor" cx="0" cy="0" r="1"/></defs><g fill="none" color="#000" stroke="currentColor"><path stroke="#000" d="M53.9 381.8h9m552.1 0h-9"/><text transform="translate(45.6 385.7)" stroke="none" fill="#000" font-family="Arial" font-size="12" text-anchor="end"><tspan>1.4</tspan></text></g><g fill="none" color="#000" stroke="currentColor"><path stroke="#000" d="M53.9 321.5h9m552.1 0h-9"/><text transform="translate(45.6 325.4)" stroke="none" fill="#000" font-family="Arial" font-size="12" text-anchor="end"><tspan>1.6</tspan></text></g><g fill="none" color="#000" stroke="currentColor"><path stroke="#000" d="M53.9 261.2h9m552.1 0h-9"/><text transform="translate(45.6 265.1)" stroke="none" fill="#000" font-family="Arial" font-size="12" text-anchor="end"><tspan>1.8</tspan></text></g><g fill="none" color="#000" stroke="currentColor"><path stroke="#000" d="M53.9 200.9h9m552.1 0h-9"/><text transform="translate(45.6 204.8)" stroke="none" fill="#000" font-family="Arial" font-size="12" text-anchor="end"><tspan>2</tspan></text></g><g fill="none" color="#000" stroke="currentColor"><path stroke="#000" d="M53.9 140.6h9m552.1 0h-9"/><text transform="translate(45.6 144.5)" stroke="none" fill="#000" font-family="Arial" font-size="12" text-anchor="end"><tspan>2.2</tspan></text></g><g fill="none" color="#000" stroke="currentColor"><path stroke="#000" d="M53.9 80.3h9m552.1 0h-9"/><text transform="translate(45.6 84.2)" stroke="none" fill="#000" font-family="Arial" font-size="12" text-anchor="end"><tspan>2.4</tspan></text></g><g fill="none" color="#000" stroke="currentColor"><path stroke="#000" d="M53.9 20h9M615 20h-9"/><text transform="translate(45.6 23.9)" stroke="none" fill="#000" font-family="Arial" font-size="12" text-anchor="end"><tspan>2.6</tspan></text></g><g fill="none" color="#000" stroke="currentColor"><path stroke="#000" d="M53.9 428v-9m0-400.9v9"/><text transform="translate(53.9 449.9)" stroke="none" fill="#000" font-family="Arial" font-size="12" text-anchor="middle"><tspan>0</tspan></text></g><g fill="none" color="#000" stroke="currentColor"><path stroke="#000" d="M110.6 428v-9m0-400.9v9"/><text transform="translate(110.6 449.9)" stroke="none" fill="#000" font-family="Arial" font-size="12" text-anchor="middle"><tspan>10</tspan></text></g><g fill="none" color="#000" stroke="currentColor"><path stroke="#000" d="M167.3 428v-9m0-400.9v9"/><text transform="translate(167.3 449.9)" stroke="none" fill="#000" font-family="Arial" font-size="12" text-anchor="middle"><tspan>20</tspan></text></g><g fill="none" color="#000" stroke="currentColor"><path stroke="#000" d="M223.9 428v-9m0-400.9v9"/><text transform="translate(223.9 449.9)" stroke="none" fill="#000" font-family="Arial" font-size="12" text-anchor="middle"><tspan>30</tspan></text></g><g fill="none" color="#000" stroke="currentColor"><path stroke="#000" d="M280.6 428v-9m0-400.9v9"/><text transform="translate(280.6 449.9)" stroke="none" fill="#000" font-family="Arial" font-size="12" text-anchor="middle"><tspan>40</tspan></text></g><g fill="none" color="#000" stroke="currentColor"><path stroke="#000" d="M337.3 428v-9m0-400.9v9"/><text transform="translate(337.3 449.9)" stroke="none" fill="#000" font-family="Arial" font-size="12" text-anchor="middle"><tspan>50</tspan></text></g><g fill="none" color="#000" stroke="currentColor"><path stroke="#000" d="M394 428v-9m0-400.9v9"/><text transform="translate(394 449.9)" stroke="none" fill="#000" font-family="Arial" font-size="12" text-anchor="middle"><tspan>60</tspan></text></g><g fill="none" color="#000" stroke="currentColor"><path stroke="#000" d="M450.6 428v-9m0-400.9v9"/><text transform="translate(450.6 449.9)" stroke="none" fill="#000" font-family="Arial" font-size="12" text-anchor="middle"><tspan>70</tspan></text></g><g fill="none" color="#000" stroke="currentColor"><path stroke="#000" d="M507.3 428v-9m0-400.9v9"/><text transform="translate(507.3 449.9)" stroke="none" fill="#000" font-family="Arial" font-size="12" text-anchor="middle"><tspan>80</tspan></text></g><g fill="none" color="#000" stroke="currentColor"><path stroke="#000" d="M564 428v-9m0-400.9v9"/><text transform="translate(564 449.9)" stroke="none" fill="#000" font-family="Arial" font-size="12" text-anchor="middle"><tspan>90</tspan></text></g><path stroke="#000" d="M53.9 18.1V428H615V18.1H53.9z" fill="none" color="#000"/><text transform="translate(483.5 467.9)" stroke="none" fill="#000" font-family="Arial" font-size="12" text-anchor="end" color="#000"><tspan>pages+cached+noexternal+nojs</tspan></text><path stroke="#9400D3" d="M491.8 464H534M53.9 351.7l5.7 19 5.6-13.9 5.7 20.8 5.7-94.4 5.6-95.6 5.7 22.3 5.7 83 5.6-15.4 5.7-31.7 5.7-93.2 5.6 123.4 5.7-57.6 5.7 28.6 5.6-8.4 5.7-54.9 5.7-16.6 5.7 140.5 5.6-106.7 5.7 13.6 5.7 72.6 5.6-41.6 5.7-4.2 5.7 47.3 5.6-35.8 5.7-8.2 5.7-30.7 5.6 87.1 5.7-50.7 5.7 67 5.6-236.4 5.7 15.3 5.7 122.5 5.6 26.5 5.7-20.2 5.7-127.5 5.6 197.5 5.7-18.7 5.7 25.6 5.6-104 5.7 47.6 5.7-33.2 5.6 78.1 5.7-64.5 5.7 10.9 5.6 39.2 5.7-15.7 5.7-41.9 5.6 33.1 5.7 1.9 5.7-61 5.7 94.7 5.6 2.1 5.7-17.1 5.7-52.8 5.6 33.5 5.7 42.2 5.7-74.5 5.6 27.1 5.7 15.4 5.7-17.5 5.6-79.3 5.7 106.5 5.7-9.4 5.6-60.3 5.7 104.9 5.7-22.6 5.6-29.8 5.7-26 5.7-52.4 5.6-2.1 5.7 99.5 5.7-141.8 5.6 104.7 5.7 35.3 5.7-50.4 5.6.6 5.7 47.6 5.7-64.2 5.6 36.5 5.7 62.1 5.7 1.2 5.6-2.7 5.7-118.5 5.7 32.9 5.7 22.3 5.6-9.7 5.7 39.5 5.7-13.2 5.6-68.5 5.7 80.2 5.7 19.3 5.6 11.8 5.7-74.8 5.7 33.5 5.6-41.9L598 197l5.7 38.3 5.6 57.9 5.7-32.9" fill="none" color="#000"/><text transform="translate(483.5 485.9)" stroke="none" fill="#000" font-family="Arial" font-size="12" text-anchor="end" color="#000"><tspan>pages+cached+noexternal+nofonts+nosvg+noimg</tspan></text><path stroke="#009E73" d="M491.8 482H534M53.9 266.6l5.7 19.3 5.6-129.3 5.7 77.5 5.7 46.1 5.6-18.1 5.7-23.8 5.7-89.9L99.2 269l5.7 70 5.7 58.2 5.6-104.6 5.7 47.6 5.7 11.8 5.6-113.1 5.7 55.2 5.7 49.7 5.7 66.1 5.6-155.3 5.7-30.8 5.7 83.2 5.6 96.5 5.7-295.2 5.7 288.6 5.6-41.9 5.7-64.6 5.7 39.3 5.6 34.3 5.7-46.7 5.7 51.9 5.6 36.4 5.7-157.7h5.7l5.6 140.6 5.7 13.8 5.7-136.3 5.6 93.5 5.7 13 5.7-83.9 5.6-69.6 5.7 86.8 5.7 95.6 5.6-119.7L297.6 26l5.7 358.2 5.6 4.6 5.7-241.6 5.7 171 5.6-59.4 5.7-24.4 5.7 158.3 5.7-76 5.6-107.7 5.7 211.1L360 314l5.6-163.2 5.7 99.8 5.7 32 5.6 7.8 5.7-79 5.7 187.3 5.6-11.8 5.7-73.8 5.7-12.4 5.6 79 5.7-36.8 5.7-107 5.6 56.4 5.7-3.7 5.7 26.3 5.6-114.6 5.7 161.6 5.7 13.3 5.6-160.7 5.7-66.7 5.7 65.1 5.6 118.6 5.7 53.3 5.7-246.3 5.6 145.9 5.7 26 5.7-89.9 5.6 143.2 5.7-28.9 5.7-139.3 5.7 32.8 5.6 35 5.7 11.5 5.7 115.8 5.6 6 5.7-89 5.7 78.7 5.6-51.5 5.7-41.3 5.7 2.4 5.6 100.4L598 269l5.7 13.6 5.6.6 5.7-1.2" fill="none" color="#000"/><g fill="none" color="#000" stroke="currentColor"><path stroke="#000" d="M53.9 18.1V428H615V18.1H53.9z"/></g></svg>

<?xml version="1.0" encoding="utf-8"  standalone="no"?>
<svg 
 width="640" height="500"
 viewBox="0 0 640 500"
 xmlns="http://www.w3.org/2000/svg"
 xmlns:xlink="http://www.w3.org/1999/xlink"
>

<title>Gnuplot</title>
<desc>Produced by GNUPLOT 5.4 patchlevel 0 </desc>

<g id="gnuplot_canvas">

<rect x="0" y="0" width="640" height="500" fill="#ffffff"/>
<defs>

	<circle id='gpDot' r='0.5' stroke-width='0.5' stroke='currentColor'/>
	<path id='gpPt0' stroke-width='0.222' stroke='currentColor' d='M-1,0 h2 M0,-1 v2'/>
	<path id='gpPt1' stroke-width='0.222' stroke='currentColor' d='M-1,-1 L1,1 M1,-1 L-1,1'/>
	<path id='gpPt2' stroke-width='0.222' stroke='currentColor' d='M-1,0 L1,0 M0,-1 L0,1 M-1,-1 L1,1 M-1,1 L1,-1'/>
	<rect id='gpPt3' stroke-width='0.222' stroke='currentColor' x='-1' y='-1' width='2' height='2'/>
	<rect id='gpPt4' stroke-width='0.222' stroke='currentColor' fill='currentColor' x='-1' y='-1' width='2' height='2'/>
	<circle id='gpPt5' stroke-width='0.222' stroke='currentColor' cx='0' cy='0' r='1'/>
	<use xlink:href='#gpPt5' id='gpPt6' fill='currentColor' stroke='none'/>
	<path id='gpPt7' stroke-width='0.222' stroke='currentColor' d='M0,-1.33 L-1.33,0.67 L1.33,0.67 z'/>
	<use xlink:href='#gpPt7' id='gpPt8' fill='currentColor' stroke='none'/>
	<use xlink:href='#gpPt7' id='gpPt9' stroke='currentColor' transform='rotate(180)'/>
	<use xlink:href='#gpPt9' id='gpPt10' fill='currentColor' stroke='none'/>
	<use xlink:href='#gpPt3' id='gpPt11' stroke='currentColor' transform='rotate(45)'/>
	<use xlink:href='#gpPt11' id='gpPt12' fill='currentColor' stroke='none'/>
	<path id='gpPt13' stroke-width='0.222' stroke='currentColor' d='M0,1.330 L1.265,0.411 L0.782,-1.067 L-0.782,-1.076 L-1.265,0.411 z'/>
	<use xlink:href='#gpPt13' id='gpPt14' fill='currentColor' stroke='none'/>
	<filter id='textbox' filterUnits='objectBoundingBox' x='0' y='0' height='1' width='1'>
	  <feFlood flood-color='#FFFFFF' flood-opacity='1' result='bgnd'/>
	  <feComposite in='SourceGraphic' in2='bgnd' operator='atop'/>
	</filter>
	<filter id='greybox' filterUnits='objectBoundingBox' x='0' y='0' height='1' width='1'>
	  <feFlood flood-color='lightgrey' flood-opacity='1' result='grey'/>
	  <feComposite in='SourceGraphic' in2='grey' operator='atop'/>
	</filter>
</defs>
<g fill="none" color="#FFFFFF" stroke="currentColor" stroke-width="1.00" stroke-linecap="butt" stroke-linejoin="miter">
</g>
<g fill="none" color="black" stroke="currentColor" stroke-width="1.00" stroke-linecap="butt" stroke-linejoin="miter">
	<path stroke='black'  d='M53.9,381.8 L62.9,381.8 M615.0,381.8 L606.0,381.8  '/>	<g transform="translate(45.6,385.7)" stroke="none" fill="black" font-family="Arial" font-size="12.00"  text-anchor="end">
		<text><tspan font-family="Arial" > 1.4</tspan></text>
	</g>
</g>
<g fill="none" color="black" stroke="currentColor" stroke-width="1.00" stroke-linecap="butt" stroke-linejoin="miter">
	<path stroke='black'  d='M53.9,321.5 L62.9,321.5 M615.0,321.5 L606.0,321.5  '/>	<g transform="translate(45.6,325.4)" stroke="none" fill="black" font-family="Arial" font-size="12.00"  text-anchor="end">
		<text><tspan font-family="Arial" > 1.6</tspan></text>
	</g>
</g>
<g fill="none" color="black" stroke="currentColor" stroke-width="1.00" stroke-linecap="butt" stroke-linejoin="miter">
	<path stroke='black'  d='M53.9,261.2 L62.9,261.2 M615.0,261.2 L606.0,261.2  '/>	<g transform="translate(45.6,265.1)" stroke="none" fill="black" font-family="Arial" font-size="12.00"  text-anchor="end">
		<text><tspan font-family="Arial" > 1.8</tspan></text>
	</g>
</g>
<g fill="none" color="black" stroke="currentColor" stroke-width="1.00" stroke-linecap="butt" stroke-linejoin="miter">
	<path stroke='black'  d='M53.9,200.9 L62.9,200.9 M615.0,200.9 L606.0,200.9  '/>	<g transform="translate(45.6,204.8)" stroke="none" fill="black" font-family="Arial" font-size="12.00"  text-anchor="end">
		<text><tspan font-family="Arial" > 2</tspan></text>
	</g>
</g>
<g fill="none" color="black" stroke="currentColor" stroke-width="1.00" stroke-linecap="butt" stroke-linejoin="miter">
	<path stroke='black'  d='M53.9,140.6 L62.9,140.6 M615.0,140.6 L606.0,140.6  '/>	<g transform="translate(45.6,144.5)" stroke="none" fill="black" font-family="Arial" font-size="12.00"  text-anchor="end">
		<text><tspan font-family="Arial" > 2.2</tspan></text>
	</g>
</g>
<g fill="none" color="black" stroke="currentColor" stroke-width="1.00" stroke-linecap="butt" stroke-linejoin="miter">
	<path stroke='black'  d='M53.9,80.3 L62.9,80.3 M615.0,80.3 L606.0,80.3  '/>	<g transform="translate(45.6,84.2)" stroke="none" fill="black" font-family="Arial" font-size="12.00"  text-anchor="end">
		<text><tspan font-family="Arial" > 2.4</tspan></text>
	</g>
</g>
<g fill="none" color="black" stroke="currentColor" stroke-width="1.00" stroke-linecap="butt" stroke-linejoin="miter">
	<path stroke='black'  d='M53.9,20.0 L62.9,20.0 M615.0,20.0 L606.0,20.0  '/>	<g transform="translate(45.6,23.9)" stroke="none" fill="black" font-family="Arial" font-size="12.00"  text-anchor="end">
		<text><tspan font-family="Arial" > 2.6</tspan></text>
	</g>
</g>
<g fill="none" color="black" stroke="currentColor" stroke-width="1.00" stroke-linecap="butt" stroke-linejoin="miter">
	<path stroke='black'  d='M53.9,428.0 L53.9,419.0 M53.9,18.1 L53.9,27.1  '/>	<g transform="translate(53.9,449.9)" stroke="none" fill="black" font-family="Arial" font-size="12.00"  text-anchor="middle">
		<text><tspan font-family="Arial" > 0</tspan></text>
	</g>
</g>
<g fill="none" color="black" stroke="currentColor" stroke-width="1.00" stroke-linecap="butt" stroke-linejoin="miter">
	<path stroke='black'  d='M110.6,428.0 L110.6,419.0 M110.6,18.1 L110.6,27.1  '/>	<g transform="translate(110.6,449.9)" stroke="none" fill="black" font-family="Arial" font-size="12.00"  text-anchor="middle">
		<text><tspan font-family="Arial" > 10</tspan></text>
	</g>
</g>
<g fill="none" color="black" stroke="currentColor" stroke-width="1.00" stroke-linecap="butt" stroke-linejoin="miter">
	<path stroke='black'  d='M167.3,428.0 L167.3,419.0 M167.3,18.1 L167.3,27.1  '/>	<g transform="translate(167.3,449.9)" stroke="none" fill="black" font-family="Arial" font-size="12.00"  text-anchor="middle">
		<text><tspan font-family="Arial" > 20</tspan></text>
	</g>
</g>
<g fill="none" color="black" stroke="currentColor" stroke-width="1.00" stroke-linecap="butt" stroke-linejoin="miter">
	<path stroke='black'  d='M223.9,428.0 L223.9,419.0 M223.9,18.1 L223.9,27.1  '/>	<g transform="translate(223.9,449.9)" stroke="none" fill="black" font-family="Arial" font-size="12.00"  text-anchor="middle">
		<text><tspan font-family="Arial" > 30</tspan></text>
	</g>
</g>
<g fill="none" color="black" stroke="currentColor" stroke-width="1.00" stroke-linecap="butt" stroke-linejoin="miter">
	<path stroke='black'  d='M280.6,428.0 L280.6,419.0 M280.6,18.1 L280.6,27.1  '/>	<g transform="translate(280.6,449.9)" stroke="none" fill="black" font-family="Arial" font-size="12.00"  text-anchor="middle">
		<text><tspan font-family="Arial" > 40</tspan></text>
	</g>
</g>
<g fill="none" color="black" stroke="currentColor" stroke-width="1.00" stroke-linecap="butt" stroke-linejoin="miter">
	<path stroke='black'  d='M337.3,428.0 L337.3,419.0 M337.3,18.1 L337.3,27.1  '/>	<g transform="translate(337.3,449.9)" stroke="none" fill="black" font-family="Arial" font-size="12.00"  text-anchor="middle">
		<text><tspan font-family="Arial" > 50</tspan></text>
	</g>
</g>
<g fill="none" color="black" stroke="currentColor" stroke-width="1.00" stroke-linecap="butt" stroke-linejoin="miter">
	<path stroke='black'  d='M394.0,428.0 L394.0,419.0 M394.0,18.1 L394.0,27.1  '/>	<g transform="translate(394.0,449.9)" stroke="none" fill="black" font-family="Arial" font-size="12.00"  text-anchor="middle">
		<text><tspan font-family="Arial" > 60</tspan></text>
	</g>
</g>
<g fill="none" color="black" stroke="currentColor" stroke-width="1.00" stroke-linecap="butt" stroke-linejoin="miter">
	<path stroke='black'  d='M450.6,428.0 L450.6,419.0 M450.6,18.1 L450.6,27.1  '/>	<g transform="translate(450.6,449.9)" stroke="none" fill="black" font-family="Arial" font-size="12.00"  text-anchor="middle">
		<text><tspan font-family="Arial" > 70</tspan></text>
	</g>
</g>
<g fill="none" color="black" stroke="currentColor" stroke-width="1.00" stroke-linecap="butt" stroke-linejoin="miter">
	<path stroke='black'  d='M507.3,428.0 L507.3,419.0 M507.3,18.1 L507.3,27.1  '/>	<g transform="translate(507.3,449.9)" stroke="none" fill="black" font-family="Arial" font-size="12.00"  text-anchor="middle">
		<text><tspan font-family="Arial" > 80</tspan></text>
	</g>
</g>
<g fill="none" color="black" stroke="currentColor" stroke-width="1.00" stroke-linecap="butt" stroke-linejoin="miter">
	<path stroke='black'  d='M564.0,428.0 L564.0,419.0 M564.0,18.1 L564.0,27.1  '/>	<g transform="translate(564.0,449.9)" stroke="none" fill="black" font-family="Arial" font-size="12.00"  text-anchor="middle">
		<text><tspan font-family="Arial" > 90</tspan></text>
	</g>
</g>
<g fill="none" color="black" stroke="currentColor" stroke-width="1.00" stroke-linecap="butt" stroke-linejoin="miter">
</g>
<g fill="none" color="black" stroke="currentColor" stroke-width="1.00" stroke-linecap="butt" stroke-linejoin="miter">
	<path stroke='black'  d='M53.9,18.1 L53.9,428.0 L615.0,428.0 L615.0,18.1 L53.9,18.1 Z  '/></g>
<g fill="none" color="black" stroke="currentColor" stroke-width="1.00" stroke-linecap="butt" stroke-linejoin="miter">
</g>
	<g id="gnuplot_plot_1" ><title>pages+cached+noexternal+nojs</title>
<g fill="none" color="black" stroke="currentColor" stroke-width="1.00" stroke-linecap="butt" stroke-linejoin="miter">
	<g transform="translate(483.5,467.9)" stroke="none" fill="black" font-family="Arial" font-size="12.00"  text-anchor="end">
		<text><tspan font-family="Arial" >pages+cached+noexternal+nojs</tspan></text>
	</g>
</g>
<g fill="none" color="black" stroke="currentColor" stroke-width="1.00" stroke-linecap="butt" stroke-linejoin="miter">
	<path stroke='rgb(148,   0, 211)'  d='M491.8,464.0 L534.0,464.0 M53.9,351.7 L59.6,370.7 L65.2,356.8 L70.9,377.6 L76.6,283.2 L82.2,187.6
		L87.9,209.9 L93.6,292.9 L99.2,277.5 L104.9,245.8 L110.6,152.6 L116.2,276.0 L121.9,218.4 L127.6,247.0
		L133.2,238.6 L138.9,183.7 L144.6,167.1 L150.3,307.6 L155.9,200.9 L161.6,214.5 L167.3,287.1 L172.9,245.5
		L178.6,241.3 L184.3,288.6 L189.9,252.8 L195.6,244.6 L201.3,213.9 L206.9,301.0 L212.6,250.3 L218.3,317.3
		L223.9,80.9 L229.6,96.2 L235.3,218.7 L240.9,245.2 L246.6,225.0 L252.3,97.5 L257.9,295.0 L263.6,276.3
		L269.3,301.9 L274.9,197.9 L280.6,245.5 L286.3,212.3 L291.9,290.4 L297.6,225.9 L303.3,236.8 L308.9,276.0
		L314.6,260.3 L320.3,218.4 L325.9,251.5 L331.6,253.4 L337.3,192.4 L343.0,287.1 L348.6,289.2 L354.3,272.1
		L360.0,219.3 L365.6,252.8 L371.3,295.0 L377.0,220.5 L382.6,247.6 L388.3,263.0 L394.0,245.5 L399.6,166.2
		L405.3,272.7 L411.0,263.3 L416.6,203.0 L422.3,307.9 L428.0,285.3 L433.6,255.5 L439.3,229.5 L445.0,177.1
		L450.6,175.0 L456.3,274.5 L462.0,132.7 L467.6,237.4 L473.3,272.7 L479.0,222.3 L484.6,222.9 L490.3,270.5
		L496.0,206.3 L501.6,242.8 L507.3,304.9 L513.0,306.1 L518.6,303.4 L524.3,184.9 L530.0,217.8 L535.7,240.1
		L541.3,230.4 L547.0,269.9 L552.7,256.7 L558.3,188.2 L564.0,268.4 L569.7,287.7 L575.3,299.5 L581.0,224.7
		L586.7,258.2 L592.3,216.3 L598.0,197.0 L603.7,235.3 L609.3,293.2 L615.0,260.3  '/></g>
	</g>
	<g id="gnuplot_plot_2" ><title>pages+cached+noexternal+nofonts+nosvg+noimg</title>
<g fill="none" color="black" stroke="currentColor" stroke-width="1.00" stroke-linecap="butt" stroke-linejoin="miter">
	<g transform="translate(483.5,485.9)" stroke="none" fill="black" font-family="Arial" font-size="12.00"  text-anchor="end">
		<text><tspan font-family="Arial" >pages+cached+noexternal+nofonts+nosvg+noimg</tspan></text>
	</g>
</g>
<g fill="none" color="black" stroke="currentColor" stroke-width="1.00" stroke-linecap="butt" stroke-linejoin="miter">
	<path stroke='rgb(  0, 158, 115)'  d='M491.8,482.0 L534.0,482.0 M53.9,266.6 L59.6,285.9 L65.2,156.6 L70.9,234.1 L76.6,280.2 L82.2,262.1
		L87.9,238.3 L93.6,148.4 L99.2,269.0 L104.9,339.0 L110.6,397.2 L116.2,292.6 L121.9,340.2 L127.6,352.0
		L133.2,238.9 L138.9,294.1 L144.6,343.8 L150.3,409.9 L155.9,254.6 L161.6,223.8 L167.3,307.0 L172.9,403.5
		L178.6,108.3 L184.3,396.9 L189.9,355.0 L195.6,290.4 L201.3,329.7 L206.9,364.0 L212.6,317.3 L218.3,369.2
		L223.9,405.6 L229.6,247.9 L235.3,247.9 L240.9,388.5 L246.6,402.3 L252.3,266.0 L257.9,359.5 L263.6,372.5
		L269.3,288.6 L274.9,219.0 L280.6,305.8 L286.3,401.4 L291.9,281.7 L297.6,26.0 L303.3,384.2 L308.9,388.8
		L314.6,147.2 L320.3,318.2 L325.9,258.8 L331.6,234.4 L337.3,392.7 L343.0,316.7 L348.6,209.0 L354.3,420.1
		L360.0,314.0 L365.6,150.8 L371.3,250.6 L377.0,282.6 L382.6,290.4 L388.3,211.4 L394.0,398.7 L399.6,386.9
		L405.3,313.1 L411.0,300.7 L416.6,379.7 L422.3,342.9 L428.0,235.9 L433.6,292.3 L439.3,288.6 L445.0,314.9
		L450.6,200.3 L456.3,361.9 L462.0,375.2 L467.6,214.5 L473.3,147.8 L479.0,212.9 L484.6,331.5 L490.3,384.8
		L496.0,138.5 L501.6,284.4 L507.3,310.4 L513.0,220.5 L518.6,363.7 L524.3,334.8 L530.0,195.5 L535.7,228.3
		L541.3,263.3 L547.0,274.8 L552.7,390.6 L558.3,396.6 L564.0,307.6 L569.7,386.3 L575.3,334.8 L581.0,293.5
		L586.7,295.9 L592.3,396.3 L598.0,269.0 L603.7,282.6 L609.3,283.2 L615.0,282.0  '/></g>
	</g>
<g fill="none" color="#FFFFFF" stroke="rgb(  0, 158, 115)" stroke-width="2.00" stroke-linecap="butt" stroke-linejoin="miter">
</g>
<g fill="none" color="black" stroke="currentColor" stroke-width="2.00" stroke-linecap="butt" stroke-linejoin="miter">
</g>
<g fill="none" color="black" stroke="black" stroke-width="1.00" stroke-linecap="butt" stroke-linejoin="miter">
</g>
<g fill="none" color="black" stroke="currentColor" stroke-width="1.00" stroke-linecap="butt" stroke-linejoin="miter">
	<path stroke='black'  d='M53.9,18.1 L53.9,428.0 L615.0,428.0 L615.0,18.1 L53.9,18.1 Z  '/></g>
<g fill="none" color="black" stroke="currentColor" stroke-width="1.00" stroke-linecap="butt" stroke-linejoin="miter">
</g>
</g>
</svg>
